status/22/dialog-error.svg

<?xml version="1.0" encoding="UTF-8" standalone="no"?>
<!-- Created with Inkscape (http://www.inkscape.org/) -->

<svg
   xmlns:dc="http://purl.org/dc/elements/1.1/"
   xmlns:cc="http://creativecommons.org/ns#"
   xmlns:rdf="http://www.w3.org/1999/02/22-rdf-syntax-ns#"
   xmlns:svg="http://www.w3.org/2000/svg"
   xmlns="http://www.w3.org/2000/svg"
   xmlns:sodipodi="http://sodipodi.sourceforge.net/DTD/sodipodi-0.dtd"
   xmlns:inkscape="http://www.inkscape.org/namespaces/inkscape"
   id="svg2"
   height="22"
   width="22"
   version="1.0"
   inkscape:version="0.48.3.1 r9886"
   sodipodi:docname="dialog-error.svg">
  <metadata
     id="metadata26">
    <rdf:RDF>
      <cc:Work
         rdf:about="">
        <dc:format>image/svg+xml</dc:format>
        <dc:type
           rdf:resource="http://purl.org/dc/dcmitype/StillImage" />
        <dc:title />
      </cc:Work>
    </rdf:RDF>
  </metadata>
  <sodipodi:namedview
     pagecolor="#ffffff"
     bordercolor="#666666"
     borderopacity="1"
     objecttolerance="10"
     gridtolerance="10"
     guidetolerance="10"
     inkscape:pageopacity="0"
     inkscape:pageshadow="2"
     inkscape:window-width="1366"
     inkscape:window-height="709"
     id="namedview24"
     showgrid="true"
     inkscape:zoom="19.666667"
     inkscape:cx="8.7099236"
     inkscape:cy="10.783895"
     inkscape:window-x="0"
     inkscape:window-y="27"
     inkscape:window-maximized="1"
     inkscape:current-layer="svg2">
    <inkscape:grid
       type="xygrid"
       id="grid3003"
       empspacing="5"
       visible="true"
       enabled="true"
       snapvisiblegridlinesonly="true" />
  </sodipodi:namedview>
  <defs
     id="defs4">
    <radialGradient
       id="radialGradient2499"
       gradientUnits="userSpaceOnUse"
       cy="4.625"
       cx="62.625"
       gradientTransform="matrix(1.1294,0,0,0.28235,-58.729,19.694)"
       r="10.625">
      <stop
         id="stop8840"
         offset="0" />
      <stop
         id="stop8842"
         style="stop-opacity:0"
         offset="1" />
    </radialGradient>
    <linearGradient
       id="linearGradient2496"
       y2="3.0816"
       gradientUnits="userSpaceOnUse"
       x2="18.379"
       gradientTransform="matrix(0.51604,0,0,0.51604,-0.38499,-0.38499)"
       y1="44.98"
       x1="18.379">
      <stop
         id="stop2492"
         style="stop-color:#791235"
         offset="0" />
      <stop
         id="stop2494"
         style="stop-color:#dd3b27"
         offset="1" />
    </linearGradient>
    <radialGradient
       id="radialGradient2494"
       gradientUnits="userSpaceOnUse"
       cy="3.99"
       cx="23.896"
       gradientTransform="matrix(0,1.2316,-1.6257,0,18.487,-28.721)"
       r="20.396999">
      <stop
         id="stop3244"
         style="stop-color:#f8b17e"
         offset="0" />
      <stop
         id="stop3246"
         style="stop-color:#e35d4f"
         offset=".26238" />
      <stop
         id="stop3248"
         style="stop-color:#c6262e"
         offset=".66094" />
      <stop
         id="stop3250"
         style="stop-color:#690b54"
         offset="1" />
    </radialGradient>
    <linearGradient
       id="linearGradient2491"
       y2="5.4675999"
       gradientUnits="userSpaceOnUse"
       x2="63.396999"
       gradientTransform="matrix(1.0863,0,0,1.0862,-55.567,15.814)"
       y1="-12.489"
       x1="63.396999">
      <stop
         id="stop4875"
         style="stop-color:#fff"
         offset="0" />
      <stop
         id="stop4877"
         style="stop-color:#fff;stop-opacity:0"
         offset="1" />
    </linearGradient>
  </defs>
  <path
     style="opacity:1.00000000000000004;fill:#f9f9f9#f9f9f9#cdcdcd#ff0000;fill-opacity:1;stroke:none"
     d="M 11 3 C 6.581722 3 3 6.581722 3 11 C 3 15.418278 6.581722 19 11 19 C 15.418278 19 19 15.418278 19 11 C 19 6.581722 15.418278 3 11 3 z M 6 10 L 16 10 L 16 12 L 6 12 L 6 10 z "
     id="path2997" />
</svg>

<?xml version="1.0" encoding="UTF-8" standalone="no"?>
<!-- Created with Inkscape (http://www.inkscape.org/) -->

<svg
   xmlns:dc="http://purl.org/dc/elements/1.1/"
   xmlns:cc="http://creativecommons.org/ns#"
   xmlns:rdf="http://www.w3.org/1999/02/22-rdf-syntax-ns#"
   xmlns:svg="http://www.w3.org/2000/svg"
   xmlns="http://www.w3.org/2000/svg"
   xmlns:sodipodi="http://sodipodi.sourceforge.net/DTD/sodipodi-0.dtd"
   xmlns:inkscape="http://www.inkscape.org/namespaces/inkscape"
   id="svg2"
   height="22"
   width="22"
   version="1.0"
   inkscape:version="0.48.4 r9939"
   sodipodi:docname="dialog-error.svg">
  <metadata
     id="metadata26">
    <rdf:RDF>
      <cc:Work
         rdf:about="">
        <dc:format>image/svg+xml</dc:format>
        <dc:type
           rdf:resource="http://purl.org/dc/dcmitype/StillImage" />
        <dc:title />
      </cc:Work>
    </rdf:RDF>
  </metadata>
  <sodipodi:namedview
     pagecolor="#ffffff"
     bordercolor="#666666"
     borderopacity="1"
     objecttolerance="10"
     gridtolerance="10"
     guidetolerance="10"
     inkscape:pageopacity="0"
     inkscape:pageshadow="2"
     inkscape:window-width="1366"
     inkscape:window-height="712"
     id="namedview24"
     showgrid="true"
     inkscape:zoom="19.666667"
     inkscape:cx="8.7099236"
     inkscape:cy="10.783895"
     inkscape:window-x="0"
     inkscape:window-y="27"
     inkscape:window-maximized="1"
     inkscape:current-layer="svg2">
    <inkscape:grid
       type="xygrid"
       id="grid3003"
       empspacing="5"
       visible="true"
       enabled="true"
       snapvisiblegridlinesonly="true" />
  </sodipodi:namedview>
  <defs
     id="defs4">
    <radialGradient
       id="radialGradient2499"
       gradientUnits="userSpaceOnUse"
       cy="4.625"
       cx="62.625"
       gradientTransform="matrix(1.1294,0,0,0.28235,-58.729,19.694)"
       r="10.625">
      <stop
         id="stop8840"
         offset="0" />
      <stop
         id="stop8842"
         style="stop-opacity:0"
         offset="1" />
    </radialGradient>
    <linearGradient
       id="linearGradient2496"
       y2="3.0816"
       gradientUnits="userSpaceOnUse"
       x2="18.379"
       gradientTransform="matrix(0.51604,0,0,0.51604,-0.38499,-0.38499)"
       y1="44.98"
       x1="18.379">
      <stop
         id="stop2492"
         style="stop-color:#791235"
         offset="0" />
      <stop
         id="stop2494"
         style="stop-color:#dd3b27"
         offset="1" />
    </linearGradient>
    <radialGradient
       id="radialGradient2494"
       gradientUnits="userSpaceOnUse"
       cy="3.99"
       cx="23.896"
       gradientTransform="matrix(0,1.2316,-1.6257,0,18.487,-28.721)"
       r="20.396999">
      <stop
         id="stop3244"
         style="stop-color:#f8b17e"
         offset="0" />
      <stop
         id="stop3246"
         style="stop-color:#e35d4f"
         offset=".26238" />
      <stop
         id="stop3248"
         style="stop-color:#c6262e"
         offset=".66094" />
      <stop
         id="stop3250"
         style="stop-color:#690b54"
         offset="1" />
    </radialGradient>
    <linearGradient
       id="linearGradient2491"
       y2="5.4675999"
       gradientUnits="userSpaceOnUse"
       x2="63.396999"
       gradientTransform="matrix(1.0863,0,0,1.0862,-55.567,15.814)"
       y1="-12.489"
       x1="63.396999">
      <stop
         id="stop4875"
         style="stop-color:#fff"
         offset="0" />
      <stop
         id="stop4877"
         style="stop-color:#fff;stop-opacity:0"
         offset="1" />
    </linearGradient>
  </defs>
  <path
     inkscape:connector-curvature="0"
     id="path2997"
     d="m 11,3 c -4.41828,0 -8,3.58172 -8,8 0,4.41828 3.58172,8 8,8 4.41828,0 8,-3.58172 8,-8 0,-4.41828 -3.58172,-8 -8,-8 z m -5,7 10,0 0,2 -10,0 0,-2 z"
     style="fill:#d42b2b;fill-opacity:1;stroke:none" />
</svg>
